X: 27857
T: Mother-In-Law, The
R: reel
M: 4/4
K: Dmajor
DEFA BAAd|BAdB AF (3FEF|DEFA BAAd|(3Bcd AF EDB,E|
D2 FA B{/d}B{/A}BA|B2 dB ABde|(3fga ec dBAd|(3Bcd AF EDEF||
ABde {fa}feef|defd edBd|ABde {fa}feec|dBAF EB, (3B,A,B,|
ABde feef|dfaf edBd|(3fga ec dBAd|(3Bcd AFFD D2||

